X:4806
T:En dro de Meriadec
C:Dour, Tablatures
M:4/4
L:1/8
K:G
BcBA B2 GB|dedc B2 G2|B2 cA B2 GB|d2 c2 B4::\
B2 GB d2 cB|A2 c2 B2 G2|
B2 G2 A2 Bc|B2 BG A4|\
BBGB d2 cB|AcBA B2 G2|A2 dc B2 AG|BcBA G4:|
